src/assets/images/popcorn-logo.svg

<svg fill="none" height="160" viewBox="0 0 224 160" width="224" xmlns="http://www.w3.org/2000/svg"><rect fill="#fff" height="160" rx="16" width="224"/><g clip-rule="evenodd" fill-rule="evenodd"><path d="m175.01 88.7204h3.573v-6.4546c0-4.8038-2.39-5.9864-5.198-5.9864-1.429 0-2.76.4435-3.819 1.823l-.123-1.552h-3.203v12.17h3.499v-6.2821c0-1.6013 1.108-2.9808 2.758-2.9808 1.676 0 2.513.936 2.513 2.833zm-16.653-12.1453h-3.302v12.1453h3.548v-6.3314c0-1.823 1.306-2.8084 2.833-2.8084.714 0 1.38.1972 1.946.616l1.479-2.8084c-.838-.7391-1.824-1.1088-2.981-1.1088-1.38 0-2.439.4682-3.252 1.6261zm-12.269 9.386c-2.167 0-3.054-1.6504-3.054-3.3012 0-1.5273.96-3.2027 3.054-3.2027 2.143 0 3.08 1.6754 3.08 3.2027 0 1.7245-.912 3.3012-3.08 3.3012zm0 3.1534c4.139 0 6.676-2.5621 6.676-6.4546 0-3.6706-2.611-6.3805-6.676-6.3805-4.04 0-6.651 2.7099-6.651 6.3805 0 3.8925 2.513 6.4546 6.651 6.4546zm-7.414-1.9458-2.243-2.3158c-.591.591-1.675.9113-2.463.9113-1.651 0-3.129-1.1088-3.129-3.0549 0-2.0449 1.429-3.1781 3.203-3.1781.763 0 1.528.1479 2.291.7145l1.971-2.2421c-1.257-1.3551-2.636-1.7245-4.41-1.7245-3.547 0-6.627 2.3405-6.627 6.4299 0 4.385 3.105 6.4052 6.652 6.4052 1.576.0003 3.276-.3938 4.755-1.9455zm-19.561-1.3307c-1.651 0-3.277-1.0592-3.277-3.1781 0-2.3155 1.676-3.1287 3.277-3.1287 1.897 0 2.981 1.3798 2.981 3.1287 0 1.8477-1.133 3.1781-2.981 3.1781zm-6.898 8.2531h3.572v-6.553c1.06 1.1826 2.538 1.552 3.819 1.552 3.572 0 6.06-2.4389 6.06-6.4299 0-3.769-2.439-6.3558-6.011-6.3558-1.552 0-2.931.3694-4.04 1.823l-.222-1.552h-3.178zm-8.967-8.13c-2.168 0-3.055-1.6504-3.055-3.3012 0-1.5273.96-3.2027 3.055-3.2027 2.143 0 3.079 1.6754 3.079 3.2027 0 1.7245-.911 3.3012-3.079 3.3012zm0 3.1534c4.138 0 6.676-2.5621 6.676-6.4546 0-3.6706-2.611-6.3805-6.676-6.3805-4.0405 0-6.6519 2.7099-6.6519 6.3805 0 3.8925 2.5127 6.4546 6.6519 6.4546zm-18.6001-8.7948v-5.1982h4.2866c1.8477 0 2.759 1.232 2.759 2.6115s-.9113 2.5867-2.759 2.5867zm0 3.5228h4.2866c4.3851-.0738 6.6024-2.7096 6.6024-6.1833 0-3.3506-2.168-6.1836-6.6024-6.1836h-8.1297v17.2448h3.8431z" fill="#1e154a"/><path d="m50.4016 78.2799c.2703.7462.7941 1.4619 1.1962 2.135 3.0228 5.059 9.318 7.743 15.2134 3.3797 9.5306-7.0518 8.0562-14.0418-3.7235-15.3838-11.7793-1.342-16.5414 3.1599-12.6861 9.8691z" fill="#4fc4fa"/><path d="m46.9758 84.3291c1.3423 11.779 8.1579 13.1225 15.3838 3.7233 5.4807-7.1291 3.8791-18.5062-7.5875-15.8897-4.6171 1.0535-8.6393 4.7654-7.7963 12.1664z" fill="#ffb224"/><path d="m64.0136 85.3485c.828-1.7403 1.2956-3.5811 1.3708-5.327-1.0695 1.2046-1.933 1.9327-3.5477 3.1254-1.6151 1.193-2.5362 1.8456-3.6314 2.5118 1.8212.4979 3.8042.4545 5.8083-.3102z" fill="#4f8923"/><path d="m45.5247 78.7114c4.7277 10.8726 6.5828 11.5576 16.3121 4.4353 9.7293-7.1226 5.6117-11.6329-4.6518-16.0959-10.8721-4.7277-16.3879.7876-11.6603 11.6606z" fill="#fa2dc7"/><path d="m65.3844 80.0216c4.2901-4.855 1.2391-8.4248-5.7485-11.8429-7.6449-.1213-11.3304 2.7691-10.4042 7.1824l-.0003.0006.0125.0574-.0041-.0208c.8851 4.131 4.7892 9.1252 8.9634 10.2599.5208.1303 6.5247-4.4362 7.1812-5.6366z" fill="#4d22c3"/><path d="m49.2311 75.3623c-1.3298 1.5422-2.217 3.6287-2.35 6.3353 3.2343 6.7148 5.4377 7.6877 11.3241 3.9612l-.0026-.0006c-4.1864-1.1383-8.1018-6.158-8.9715-10.2959z" fill="#fa1f1c"/><path d="m58.2053 85.6586c.0455.0113.1324-.0131.254-.0678 1.2727-.5726 6.3267-4.4743 6.9251-5.57.4462-7.0173-4.9272-9.5309-10.8086-7.948-2.0856.5612-3.8916 1.604-5.3446 3.2884.8697 4.1385 4.7878 9.1594 8.9741 10.2974z" fill="#1e154a"/><path d="m60.4502 81.9556c.0173.0732.0232.1499.031.2243.121 1.1793.3768 2.5222-1.4616 3.3503-.7918.3566-1.8843.0493-3.0743-.6773-1.7837-1.0892-3.7345-3.1079-4.9302-5.0311-4.2447-6.8269 5.6643-10.0318 9.1564-6.3442 1.4372 1.5175 1.6811 4.0861.2594 5.9138-.5684.7299-.2103 1.5863.0193 2.5642z" fill="#fff"/></g></svg>

<svg width="224" height="160" viewBox="0 0 224 160" fill="none" xmlns="http://www.w3.org/2000/svg">
<rect width="224" height="160" rx="16" fill="white"/>
<path fill-rule="evenodd" clip-rule="evenodd" d="M175.01 88.7204H178.583V82.2658C178.583 77.462 176.193 76.2794 173.385 76.2794C171.956 76.2794 170.625 76.7229 169.566 78.1024L169.443 76.5504H166.24V88.7204H169.739V82.4383C169.739 80.837 170.847 79.4575 172.497 79.4575C174.173 79.4575 175.01 80.3935 175.01 82.2905V88.7204H175.01ZM158.357 76.5751H155.055V88.7204H158.603V82.389C158.603 80.566 159.909 79.5806 161.436 79.5806C162.15 79.5806 162.816 79.7778 163.382 80.1966L164.861 77.3882C164.023 76.6491 163.037 76.2794 161.88 76.2794C160.5 76.2794 159.441 76.7476 158.628 77.9055L158.357 76.5751ZM146.088 85.9611C143.921 85.9611 143.034 84.3107 143.034 82.6599C143.034 81.1326 143.994 79.4572 146.088 79.4572C148.231 79.4572 149.168 81.1326 149.168 82.6599C149.168 84.3844 148.256 85.9611 146.088 85.9611ZM146.088 89.1145C150.227 89.1145 152.764 86.5524 152.764 82.6599C152.764 78.9893 150.153 76.2794 146.088 76.2794C142.048 76.2794 139.437 78.9893 139.437 82.6599C139.437 86.5524 141.95 89.1145 146.088 89.1145ZM138.674 87.1687L136.431 84.8529C135.84 85.4439 134.756 85.7642 133.968 85.7642C132.317 85.7642 130.839 84.6554 130.839 82.7093C130.839 80.6644 132.268 79.5312 134.042 79.5312C134.805 79.5312 135.57 79.6791 136.333 80.2457L138.304 78.0036C137.047 76.6485 135.668 76.2791 133.894 76.2791C130.347 76.2791 127.267 78.6196 127.267 82.709C127.267 87.094 130.372 89.1142 133.919 89.1142C135.495 89.1145 137.195 88.7204 138.674 87.1687ZM119.113 85.838C117.462 85.838 115.836 84.7788 115.836 82.6599C115.836 80.3444 117.512 79.5312 119.113 79.5312C121.01 79.5312 122.094 80.911 122.094 82.6599C122.094 84.5076 120.961 85.838 119.113 85.838ZM112.215 94.0911H115.787V87.5381C116.847 88.7207 118.325 89.0901 119.606 89.0901C123.178 89.0901 125.666 86.6512 125.666 82.6602C125.666 78.8912 123.227 76.3044 119.655 76.3044C118.103 76.3044 116.724 76.6738 115.615 78.1274L115.393 76.5754H112.215V94.0911ZM103.248 85.9611C101.08 85.9611 100.193 84.3107 100.193 82.6599C100.193 81.1326 101.153 79.4572 103.248 79.4572C105.391 79.4572 106.327 81.1326 106.327 82.6599C106.327 84.3844 105.416 85.9611 103.248 85.9611ZM103.248 89.1145C107.386 89.1145 109.924 86.5524 109.924 82.6599C109.924 78.9893 107.313 76.2794 103.248 76.2794C99.2075 76.2794 96.5961 78.9893 96.5961 82.6599C96.5961 86.5524 99.1088 89.1145 103.248 89.1145ZM84.6479 80.3197V75.1215H88.9345C90.7822 75.1215 91.6935 76.3535 91.6935 77.733C91.6935 79.1125 90.7822 80.3197 88.9345 80.3197H84.6479ZM84.6479 83.8425H88.9345C93.3196 83.7687 95.5369 81.1329 95.5369 77.6592C95.5369 74.3086 93.3689 71.4756 88.9345 71.4756H80.8048V88.7204H84.6479V83.8425Z" fill="#1E154A"/>
<path fill-rule="evenodd" clip-rule="evenodd" d="M50.4016 78.2799C50.6719 79.0261 51.1957 79.7418 51.5978 80.4149C54.6206 85.4739 60.9158 88.1579 66.8112 83.7946C76.3418 76.7428 74.8674 69.7528 63.0877 68.4108C51.3084 67.0688 46.5463 71.5707 50.4016 78.2799Z" fill="#4FC4FA"/>
<path fill-rule="evenodd" clip-rule="evenodd" d="M46.9758 84.3291C48.3181 96.1081 55.1337 97.4516 62.3596 88.0524C67.8403 80.9233 66.2387 69.5462 54.7721 72.1627C50.155 73.2162 46.1328 76.9281 46.9758 84.3291Z" fill="#FFB224"/>
<path fill-rule="evenodd" clip-rule="evenodd" d="M64.0136 85.3485C64.8416 83.6082 65.3092 81.7674 65.3844 80.0215C64.3149 81.2261 63.4514 81.9542 61.8367 83.1469C60.2216 84.3399 59.3005 84.9925 58.2053 85.6587C60.0265 86.1566 62.0095 86.1132 64.0136 85.3485Z" fill="#4F8923"/>
<path fill-rule="evenodd" clip-rule="evenodd" d="M45.5247 78.7114C50.2524 89.584 52.1075 90.269 61.8368 83.1467C71.5661 76.0241 67.4485 71.5138 57.185 67.0508C46.3129 62.3231 40.7971 67.8384 45.5247 78.7114Z" fill="#FA2DC7"/>
<path fill-rule="evenodd" clip-rule="evenodd" d="M65.3844 80.0216C69.6745 75.1666 66.6235 71.5968 59.6359 68.1787C51.991 68.0574 48.3055 70.9478 49.2317 75.3611L49.2314 75.3617L49.2439 75.4191L49.2398 75.3983C50.1249 79.5293 54.029 84.5235 58.2032 85.6582C58.724 85.7885 64.7279 81.222 65.3844 80.0216Z" fill="#4D22C3"/>
<path fill-rule="evenodd" clip-rule="evenodd" d="M49.2311 75.3623C47.9013 76.9045 47.0141 78.991 46.8811 81.6976C50.1154 88.4124 52.3188 89.3853 58.2052 85.6588L58.2026 85.6582C54.0162 84.5199 50.1008 79.5002 49.2311 75.3623Z" fill="#FA1F1C"/>
<path fill-rule="evenodd" clip-rule="evenodd" d="M58.2053 85.6586C58.2508 85.6699 58.3377 85.6455 58.4593 85.5908C59.732 85.0182 64.786 81.1165 65.3844 80.0208C65.8306 73.0035 60.4572 70.4899 54.5758 72.0728C52.4902 72.634 50.6842 73.6768 49.2312 75.3612C50.1009 79.4997 54.019 84.5206 58.2053 85.6586Z" fill="#1E154A"/>
<path fill-rule="evenodd" clip-rule="evenodd" d="M60.4502 81.9556C60.4675 82.0288 60.4734 82.1055 60.4812 82.1799C60.6022 83.3592 60.858 84.7021 59.0196 85.5302C58.2278 85.8868 57.1353 85.5795 55.9453 84.8529C54.1616 83.7637 52.2108 81.745 51.0151 79.8218C46.7704 72.9949 56.6794 69.79 60.1715 73.4776C61.6087 74.9951 61.8526 77.5637 60.4309 79.3914C59.8625 80.1213 60.2206 80.9777 60.4502 81.9556Z" fill="white"/>
</svg>
